X:067 
T:Grandpa Tommy's Ceili Band 1 (reel)
C:Martin Mulhaire
F:file ID: cre.5/067grand_t1
B:CRE5.129(i) (Banna CÃÂÃÂÃÂÃÂ©ilÃÂÃÂÃÂÃÂ­ Daideo TaimÃÂÃÂÃÂÃÂ­)
L:1/8
Q:180
M:C
R:reel
K:G
D|GBB2 dBB2|GBB2 ABGE|DEGA Bdd2|eaa2 gedB|
GB~B2 dB~B2|GBB2 ABGE|DEGA Bgfg|1 ecAF G3:|2 ecAF G2||
|:Bd|g2gf gfed|Bdd2 Bdef|gfga gfed|ea~a2 ea~a2|
g2af gfed|Bd~d2 gded|(3cde dB cBAG|1 FDEF G2:|\
[2 FDEF HG4|]
%%vskip
P:"florid" version 
D|GB~B2 dB~B2|GABG (3ABA GE|DEGA (3BcB Bd|ea~a2 gedB|
GB~B2 dB~B2|GABG (3ABA GE|DEGA Bgfg|1 ecAF G3:|2 ecAF G2||
Bd|(3gfg (3agf gfed|Bd (3d^cd Bdef|(3gfg (3agf gfed|eaag agef|
g2 (3agf gfed|Bd~d2 gdBd|c3B cBAG|1 FDEF G2:|2 FDEF HG4|]

%%%

